packages/product-components/src/images/networks/btg.svg

<svg width="32" height="32" viewBox="0 0 32 32" fill="none" xmlns="http://www.w3.org/2000/svg">
<path d="M0 8C0 3.58172 3.58172 0 8 0H24C28.4183 0 32 3.58172 32 8V24C32 28.4183 28.4183 32 24 32H8C3.58172 32 0 28.4183 0 24V8Z" fill="#1F1F1F"/>
<path fill-rule="evenodd" clip-rule="evenodd" d="M16 4.96C9.9035 4.96 4.96 9.9035 4.96 16C4.96 22.0965 9.9035 27.04 16 27.04C22.0965 27.04 27.04 22.0965 27.04 16C27.04 9.9035 22.0965 4.96 16 4.96ZM4 16C4 9.3733 9.3733 4 16 4C22.6267 4 28 9.3733 28 16C28 22.6267 22.6267 28 16 28C9.3733 28 4 22.6267 4 16Z" fill="white"/>
<path d="M21.3472 13.008C21.088 11.424 19.7248 10.7472 17.8832 10.5856V8.23837H16.4592L16.448 10.5744C16.0736 10.5744 15.6928 10.5568 15.3088 10.5648L15.3152 8.23997H13.888V10.5856C13.5776 10.5936 11.0048 10.5888 11.0048 10.5888L11.0032 12.1152C11.0032 12.1152 12.056 12.0944 12.0416 12.1152C12.6224 12.112 12.8096 12.4512 12.864 12.7392V19.1696C12.8368 19.3488 12.728 19.6384 12.328 19.6432C12.3472 19.6624 11.2912 19.6432 11.2912 19.6432L11.0048 21.3504L13.8864 21.3584V23.7312H15.3104L15.3168 21.3424C15.7072 21.352 16.088 21.3552 16.4608 21.3536L16.4544 23.7296H17.8816V21.3616C20.072 21.3936 21.8624 20.4688 22.0784 18.4048C22.1984 17.1568 21.144 15.8368 20.0848 15.4448C20.9072 15.0256 21.4704 14.2464 21.3472 13.008ZM19.3472 18.088C19.104 20.1248 16.3072 19.6576 15.3424 19.6624L15.3184 16.5152C16.2864 16.512 19.3456 16.2384 19.3472 18.088ZM18.736 13.6528C18.5664 15.4752 16.176 15.0736 15.3712 15.0704L15.3456 12.2144C16.1504 12.224 18.5824 11.8848 18.7376 13.6528H18.736Z" fill="white"/>
</svg>

<svg xmlns="http://www.w3.org/2000/svg" width="32" height="32" viewBox="0 0 32 32" fill="none">
    <path class="bg" fill="#1F1F1F" d="M0 8a8 8 0 0 1 8-8h16a8 8 0 0 1 8 8v16a8 8 0 0 1-8 8H8a8 8 0 0 1-8-8z"/>
    <path class="fg" fill="#fff" fill-rule="evenodd" d="M16 4.96C9.903 4.96 4.96 9.903 4.96 16S9.903 27.04 16 27.04 27.04 22.097 27.04 16 22.097 4.96 16 4.96M4 16C4 9.373 9.373 4 16 4s12 5.373 12 12-5.373 12-12 12S4 22.627 4 16" clip-rule="evenodd"/>
    <path class="fg" fill="#fff" d="M21.347 13.008c-.259-1.584-1.622-2.26-3.464-2.422V8.238H16.46l-.011 2.336c-.374 0-.755-.017-1.14-.01l.007-2.324h-1.427v2.346c-.31.008-2.883.003-2.883.003l-.002 1.526s1.053-.02 1.039 0c.58-.003.768.336.822.624v6.43c-.027.18-.136.47-.536.474.02.02-1.037 0-1.037 0l-.286 1.707 2.881.008v2.373h1.424l.007-2.389q.585.014 1.144.012l-.007 2.376h1.428v-2.368c2.19.032 3.98-.893 4.196-2.957.12-1.248-.934-2.568-1.993-2.96.822-.42 1.385-1.199 1.262-2.437m-2 5.08c-.243 2.037-3.04 1.57-4.005 1.574l-.024-3.147c.968-.003 4.028-.277 4.03 1.573m-.611-4.435c-.17 1.822-2.56 1.42-3.365 1.417l-.025-2.856c.804.01 3.236-.33 3.392 1.439z"/>
</svg>
